!!!OTL: In a Shanty in Old Shanty Town
!!!COM: Little Jack Little
!!!COM: Siras, John
!!!LAR: Reagan, Maurice
!! "In A Shanty In Old Shanty Town" by Little Jack Little & John Siras,
!! arranged by Maurice Reagan;
!! from "Close Harmony Classics for Barbershop Quartets" B. Feldman & Co.;
!! copyright 1932 & 1952 by M Witmark & Sons; pp. 20-21; in G major.
**kern	**kern	**kern	**kern
*Ivox	*Ivox	*Ivox	*Ivox
*M3/4	*M3/4	*M3/4	*M3/4
*G:	*G:	*G:	*G:
4E	4G	4B	4c#
=1	=1	=1	=1
4D	4F#	4A	4cn
4E	4G	4B	4c#
4AA	4F#	4cn	4d
=2	=2	=2	=2
2AA	2F#	2c	2d
4AA-	4F#	4c	4d#
=3	=3	=3	=3
4GG	4G	4B	4dn
4AAn	4F#	4c	4d
4Fn	4A	4d	4B
=4	=4	=4	=4
2BB	2G#	2d	2e
4BB	4G#	4d	4e
=5	=5	=5	=5
4AA	4A	4c	4e
4BB	4G#	4d	4e
4BB	4G#	4e	4d
=6	=6	=6	=6
2C#	2A#	2f#	2e
4AAn	4cn	4f#	4d
=7	=7	=7	=7
[2.GG	[2.G	[2.B	[2.d
=8	=8	=8	=8
4GG]	4G]	4B]	4d]
4r	4r	4r	4r
4E	4G	4B	4c#
=9	=9	=9	=9
4D	4F#	4A	4cn
4E	4G	4B	4c#
4AA	4F#	4cn	4d
=10	=10	=10	=10
2AA	2F#	2c	2d
4AA-	4F#	4c	4d#
=11	=11	=11	=11
4D	4G	4B	4fn
4C	4A	4c	4e
4BB	4A	4d	4f#
=12	=12	=12	=12
2BB	2G#	2d	2e
4BB	4G#	4d	4e
=13	=13	=13	=13
4AA	4Gn	4c#	4e
4BB	4G#	4d	4e
4BB	4G#	4e	4d
=14	=14	=14	=14
2AA	2Gn	2e	2c#
4C#	4A#	4F#	4e
=15	=15	=15	=15
[2.AAn	[2.F#	[2.d	[2.cn
=16	=16	=16	=16
2AA]	2F#]	2d]	2c]
4AA	4F#	4D	4c
=17	=17	=17	=17
4GG	4G	4d	4b
4BB	4G	4d	4b
4D	4G	4d	4b
=18	=18	=18	=18
4F#	4A	4d#	4b
4BB	4A	4d#	4f#
8r	8r	8r	8r
8BB	8A	8d#	8f#
=19	=19	=19	=19
4BB	4G#	4e	4dn
4BB	4G#	4d	4e
4E	4G#	4B	4d
=20	=20	=20	=20
[2BB	[2E	[2G#	[2d
8BB]	8E]	8G#]	8d]
8BB	8G#	8E	8d
=21	=21	=21	=21
4E	4Gn	4A	4c#
4E	4G	4A	4c#
4E	4G	4A	4c#
=22	=22	=22	=22
4E-	4G	4A#	4c#
4E-	4G	4A#	4c#
8r	8r	8r	8r
8E-	8G	8A#	8c#
=23	=23	=23	=23
4En	4G	4B	4c#
4E	4G	4An	4c#
4E	4G	4G	4c#
=24	=24	=24	=24
2AA	2G	2E	2c#
8AA	8G	8E	8c#
8D	8G#	8fn	8b
=25	=25	=25	=25
4D	4A	4F#	4cn
4AA	4F#	4d	4c
4E	4Gn	4d-	4b-
=26	=26	=26	=26
2AA	2F#	2c	2dn
8AA	8F#	8E	8c
8AA-	8E-	8f#	8c
=27	=27	=27	=27
4GG	4D	4G	4B
4C#	4A#	4e	4f#
4BB	4An	4e-	4f#
=28	=28	=28	=28
2BB	2G#	2d	2en
8E	8Gn	8B	8c#
8E-	8G	8B-	8c#
=29	=29	=29	=29
4En	4G	4A	4c#
4E	4G#	4Bn	4d
4F#	4A	4cn	4d#
=30	=30	=30	=30
4G	4A	4c#	4e
4.BB	4.G#	4.f#	4.d
8AA	8Gn	8c#	8e
=31	=31	=31	=31
4D	4cn	4e	4f#
4D	4A	4cn	4f#
4D	4c	4A	4f#
=32	=32	=32	=32
[2D	[2A	[2F#	[2c
8D]	8A]	8F#]	8c]
8AA	8F#	8D	8c
=33	=33	=33	=33
4GG	4G	4d	4B
4BB	4G	4d	4B
4D	4G	4d	4B
=34	=34	=34	=34
4F#	4A	4d#	4B
4BB	4A	4d#	4f#
8r	8r	8r	8r
8BB	8A	8d#	8f#
=35	=35	=35	=35
4BB	4G#	4dn	4e
4BB	4G#	4d	4e
4E	4G#	4B	4d
=36	=36	=36	=36
[2BB	[2EE	[2G#	[2d
8BB]	8EE]	8G#]	8d]
8BB	8G#	8E	8d
=37	=37	=37	=37
4E	4Gn	4A	4c#
4E	4G	4A	4c#
4E	4G	4A	4c#
=38	=38	=38	=38
4E-	4G	4A#	4c#
4E-	4G	4A#	4c#
8r	8r	8r	8r
8E-	8G	8A#	8c#
=39	=39	=39	=39
4En	4G	4B	4c#
4E	4G	4An	4c#
4E	4A	4G	4c#
=40	=40	=40	=40
2AA	2G	2E	2c#
8AA	8G	8E	8c#
8BB	8A	8F#	8d#
=41	=41	=41	=41
4Cn	4cn	4G	4e
4C	4A	4F#	4d#
4C	4c	4G	4e
=42	=42	=42	=42
2C	2F#	2A	2d#
8C	8B-	8G	8e
8C	8F#	8A	8d#
=43	=43	=43	=43
4GG	4G	4B	4d
4GG	4G	4d	4B
4BB	4A	4f#	4d#
=44	=44	=44	=44
2BB	2G#	2dn	2e
8F#	8A	8D#	8B
8BB	8G	8E	8d
=45	=45	=45	=45
4AA	4A	4c	4e
4.AA	4.A	4.c	4.e
8AA	8Gn	8c#	8e
=46	=46	=46	=46
4AA	4F#	4d	4cn
4AA	4F#	4d	4c
4D	4F#	4b	4d
=47	=47	=47	=47
2.GG	2.D	2.G	2.B
==	==	==	==
*-	*-	*-	*-
